X:964
T:Mountain Lark, The
R:reel
D:De Danann: De Danann
Z:id:hn-reel-964
M:C|
L:1/8
K:Edor
EBBA Bdef | deBd AFDF | EBBA Bdef |1 dBAF BE~E2 :|2 gefd Bee2 ||
|: eB~B2 efge | fdad bdad |1 eB~B2 efge | fedf efgf :|2 gafg egfe | dBAF BEE2 ||
P:variations
|: EBBA Bdef | d2Bd ADFA |1 EBBA Bdef | dBAF BEE2 :|2 EBBA Bde2 | fefd Bee2 ||
|: eB~B2 efge | fdad bdfa |1 eB~B2 efge | f2df e3f :|2 g3e f3e | dBAF E3F ||

